src/assets/icons/fullscreen-exit.svg

<svg width="24" height="24" viewBox="0 0 24 24" fill="none" xmlns="http://www.w3.org/2000/svg">
<path d="M15.984 8.01599H18.984V9.98499H14.015V5.01599H15.984V8.01599V8.01599ZM14.016 18.984V14.015H18.985V15.984H15.985V18.984H14.016ZM8.016 8.01599V5.01599H9.985V9.98499H5.016V8.01599H8.016V8.01599ZM5.016 15.984V14.015H9.985V18.984H8.016V15.984H5.016V15.984Z" fill="#E8E6E3"/>
</svg>

<svg viewBox="0 0 24 24" fill="#e8e6e3" xmlns="http://www.w3.org/2000/svg">
	<path d="M15.984 8.016h3v1.969h-4.969v-4.969h1.969v3zM14.016 18.984v-4.969h4.969v1.969h-3v3h-1.969zM8.016 8.016v-3h1.969v4.969h-4.969v-1.969h3zM5.016 15.984v-1.969h4.969v4.969h-1.969v-3h-3z">
	</path>
</svg>
